!!!COM: Haydn, Franz Joseph
!!!OTL: String Quartet in B-flat Major
!!!OPS: Opus 33
!!!ONM: No. 4
!!!OMD: Presto
!!!OMV: 4
!!!SCT: H III:40
!!!SCA: Thematisch-bibliographisches Werkevererzeichnis (A. van Hoboken)
!!!YOR: Trautwein Edition
!!!ENC: Frances Bennion
!!!CDT: 1732/3/31/-1809/5/31/
!!!CNT: Oesterreich
!!!YEC: Copyright (c) 1994, 2000 Center for Computer Assisted Research in the Humanities
!!!YEM: Rights to all derivative editions reserved.
!!!YEM: Refer to licensing agreement for further details.
!!!YEN: United States of America
**kern	**kern	**kern	**kern
*k[b-e-]	*k[b-e-]	*k[b-e-]	*k[b-e-]
*B-:	*B-:	*B-:	*B-:
*clefF4	*clefC3	*clefG	*clefG
*M2/4	*M2/4	*M2/4	*M2/4
4.r	4.r	4.r	4.r
8r	8r	8r	16d
.	.	.	16f
=1	=1	=1	=1
8r	8r	8r	8b-
8B-	8f	8d	8b-
8B-	8f	8d	8b-
8r	8r	8r	16ee-
.	.	.	16dd
=2	=2	=2	=2
8r	8r	8r	8cc
8F	8f	8a	8cc
8F	8f	8a	8cc
8r	8r	8r	16ff
.	.	.	16ee-
=3	=3	=3	=3
8r	8r	8r	8dd
8BB-	8f	8dd	8bb-
8E-	8g	8ee-	8gg
8E-	8g	8cc	8ee-
=4	=4	=4	=4
4F	4f	4b-	4dd
8FF	4r	8a	8cc
8r	.	8r	16ee-
.	.	.	16cc
=5	=5	=5	=5
8r	8r	8r	8a
8F	8A	8a	8ccc
8F	8A	8a	8ccc
8r	8r	8r	16a
.	.	.	16cc
=6	=6	=6	=6
8r	8r	8r	8ee-
8A	8A	8c	8e-
8A	8A	8c	8e-
8r	8r	8r	16d
.	.	.	16f
=7	=7	=7	=7
8r	8r	8r	8b-
8BB-	8d	8f	8dd
8E-	8e-	8g	8cc
8F	8c	8e-	16b-
.	.	.	16a
=8	=8	=8	=8
8BB-	4B-	4d	4b-
8FF	.	.	.
8BB-	4r	4r	8r
8r	.	.	16b-
.	.	.	16dd
=9	=9	=9	=9
8r	8r	8r	8gg
8B-	8g	8d	8gg
8B-	8g	8d	8gg
8r	8r	8r	16bb-
.	.	.	16gg
=10	=10	=10	=10
8r	8r	8r	8ff#
8c	8a	8f#	8dd
8c	8a	8f#	8dd
8r	8r	8r	16b-
.	.	.	16dd
=11	=11	=11	=11
8r	8r	8r	8gg
8B-	8g	8d	8gg
8B-	8g	8d	8gg
8r	8r	8r	16bb-
.	.	.	16gg
=12	=12	=12	=12
8r	8r	8r	8ee
8B-	8g	8e	8cc
8B-	8g	8e	8cc
8r	8r	8r	16a
.	.	.	16cc
=13	=13	=13	=13
8A	8c	8a	8ff
8F	8c	8a	8ff
8F	8c	8a	8ff
8C	8c	16b-	16gg
.	.	16g	16ee
=14	=14	=14	=14
4F	4c	8cc	8aa
.	.	8a	8ff
4r	4r	8a	8ff
.	.	8r	16a
.	.	.	16cc
=15	=15	=15	=15
8D	8d	8f	8ff
8D	8d	8f	8ff
8BB-	8d	8d	8gg
8BB-	8d	8d	8gg
=16	=16	=16	=16
4AA	4e	4c#	4.aa
4r	4r	4r	.
.	.	.	16a
.	.	.	16cc
=17	=17	=17	=17
8A	8c	8a	8ff
8F	8c	8a	8ff
8F	8c	8a	8ff
8C	8c	16b-	16gg
.	.	16g	16ee
=18	=18	=18	=18
4F	4c	8cc	8aa
.	.	8a	8ff
4r	4r	8a	8ff
.	.	8r	16a
.	.	.	16cc
=19	=19	=19	=19
8D	8d	8f	8ff
8D	8d	8f	8ff
8BB-	8d	8d	8gg
8BB-	8d	8d	8gg
=20	=20	=20	=20
4.AA	4.e	4.c#	4.aa
8r	8r	8r	16ff
.	.	.	16aa
=21	=21	=21	=21
8r	8r	8r	8ccc
8A	8f	8ff	8ccc
8A	8f	8ff	8ccc
8r	8r	8r	16ff
.	.	.	16bb-
=22	=22	=22	=22
8r	8r	8r	8ddd
8B-	8d	8ff	8ddd
8B-	8d	8ff	8ddd
8r	8r	8r	8bb-
=23	=23	=23	=23
8c	8r	8r	16aa
.	.	.	16ccc
8r	8c	8a	8ff
8C	8r	8r	16gg
.	.	.	16bb-
8r	8c	8b-	8ee
=24	=24	=24	=24
8r	8r	8r	4.ff
8F	8c	8a	.
8F	8c	8a	.
8r	8r	8r	16aa-
.	.	.	16ff
=25	=25	=25	=25
8r	8r	8r	8b
8G	8d	8f	8b
8G	8d	8f	8b
8r	8r	8r	16e-
.	.	.	16g
=26	=26	=26	=26
8r	8r	8r	8cc
8C	8g	8e-	8cc
8C	8g	8e-	8cc
8r	8r	8r	16e-
.	.	.	16g
=27	=27	=27	=27
8r	8r	8r	8cc
8E-	8e-	8g	8cc
8E-	8e-	8g	8cc
8E-	8e-	8e-	16ee-
.	.	.	16cc
=28	=28	=28	=28
4F	4f	4d	4b-
8FF	4r	8c	8a
8r	.	8r	16d
.	.	.	16f
=29	=29	=29	=29
8r	8r	8r	8b-
8B-	8f	8d	8b-
8B-	8f	8d	8b-
8r	8r	8r	16ee-
.	.	.	16dd
=30	=30	=30	=30
8r	8r	8r	8cc
8F	8f	8a	8cc
8F	8f	8a	8cc
8r	8r	8r	16ff
.	.	.	16ee-
=31	=31	=31	=31
8r	8r	8r	8dd
8BB-	8f	8dd	8bb-
8E-	8g	8ee-	8gg
8E-	8g	8cc	8ee-
=32	=32	=32	=32
4F	4f	4b-	4dd
8FF	4r	8a	8cc
8r	.	8r	16ee-
.	.	.	16cc
=33	=33	=33	=33
8r	8r	8r	8a
8F	8A	8a	8ccc
8F	8A	8a	8ccc
8r	8r	8r	16a
.	.	.	16cc
=34	=34	=34	=34
8r	8r	8r	8ee-
8A	8A	8c	8e-
8A	8A	8c	8e-
8r	8r	8r	16d
.	.	.	16f
=35	=35	=35	=35
8r	8r	8r	8b-
8BB-	8d	8f	8dd
8E-	8e-	8g	8cc
8F	8c	8e-	16b-
.	.	.	16a
=36	=36	=36	=36
4BB-	4B-	4d	4b-
8r	4r	4r	4r
16G	.	.	.
16B-	.	.	.
=37	=37	=37	=37
2e-	2r	2g	8r
.	.	.	8b-
.	.	.	8gg
.	.	.	8ee-
=38	=38	=38	=38
4.f	2r	4a-	8ee-
.	.	.	8dd
.	.	4r	8ff
16B-	.	.	8r
16d	.	.	.
=39	=39	=39	=39
2f	2r	2a-	8r
.	.	.	8dd
.	.	.	8bb-
.	.	.	8dd
=40	=40	=40	=40
4.g	2r	4b-	8ff
.	.	.	8ee-
.	.	4r	8gg
16e-	.	.	8r
16g	.	.	.
=41	=41	=41	=41
4.a-	2r	2r	8r
.	.	.	8cc
.	.	.	8ccc
8f	.	.	8aa-
=42	=42	=42	=42
8e-	4.r	4.r	8gg
8d	.	.	8ff
8f	.	.	8bb-
8A-	8b-	8dd	8dd
=43	=43	=43	=43
8G	8ee-	8ee-	8ee-
8B-	8b-	8b-	8b-
8G	8g	8g	8g
8E-	8e-	8e-	8e-
=44	=44	=44	=44
4BB-	4B-	4B-	4b-
4r	4r	4r	8r
.	.	.	16b-
.	.	.	16dd
=45	=45	=45	=45
8d	8b-	8r	8ff
4.r	4.r	16B-	4r
.	.	16d	.
.	.	8f	.
.	.	8r	16b-
.	.	.	16ee-
=46	=46	=46	=46
8e-	8b-	8r	8gg
4.r	4.r	16B-	4r
.	.	16e-	.
.	.	8g	.
.	.	8r	16aa
.	.	.	16ccc
=47	=47	=47	=47
8c	8a	8r	8eee-
4.r	4.r	16a	4r
.	.	16cc	.
.	.	8ee-	.
.	.	8r	16dd
.	.	.	16ff
=48	=48	=48	=48
8B-	8b-	8r	8bb-
4.r	4r	16d	4.r
.	.	16f	.
.	.	8b-	.
.	16B-	8r	.
.	16d	.	.
=49	=49	=49	=49
8r	8f	2r	8dd
16BB-	4r	.	4.r
16D	.	.	.
8F	.	.	.
8r	16B-	.	.
.	16e-	.	.
=50	=50	=50	=50
8r	8g	2r	8ee-
16BB-	4r	.	4.r
16E-	.	.	.
8G	.	.	.
8r	16a	.	.
.	16cc	.	.
=51	=51	=51	=51
8r	8ee-	8c	8a
16A	4r	4.r	4.r
16c	.	.	.
8e-	.	.	.
8r	16d	.	.
.	16f	.	.
=52	=52	=52	=52
8r	8b-	8B-	8b-
16D	4.r	4.r	4r
16F	.	.	.
8B-	.	.	.
8r	.	.	16g
.	.	.	16b-
=53	=53	=53	=53
8r	2r	4r	2ee-
8G	.	.	.
8g	.	8b-	.
8e-	.	8b-	.
=54	=54	=54	=54
8e-	2r	4b-	4.ff
8d	.	.	.
8f	.	4r	.
8r	.	.	16b-
.	.	.	16dd
=55	=55	=55	=55
2r	8r	2dd	2ff
.	8B-	.	.
.	8a-	.	.
.	8f	.	.
=56	=56	=56	=56
2r	8f	2ee-	4.gg
.	8e-	.	.
.	8g	.	.
.	8r	.	16ee-
.	.	.	16gg
=57	=57	=57	=57
8r	2G	[2ee-	4.bb-
16GG	.	.	.
16BB-	.	.	.
8E-	.	.	.
8r	.	.	16ee-
.	.	.	16aa-
=58	=58	=58	=58
8r	4.A-	4.ee-]	4.ccc
16AA-	.	.	.
16C	.	.	.
8E-	.	.	.
8D	8B-	8ff	8aa-
=59	=59	=59	=59
8E-	8B-	8gg	8gg
8E-	8B-	8g	8bb-
8B-	8B-	8a-	8dd
8B-	8B-	8d	8ff
=60	=60	=60	=60
4E-	4E-	4e-	4ee-
4r	4r	4r	8r
.	.	.	16gg
.	.	.	16ee-
=61	=61	=61	=61
8r	8r	8r	2cc
8e-	8c	8g	.
8e-	8c	8g	.
8e-	8c	8g	.
=62	=62	=62	=62
8r	8r	8r	4b
8d	8d	8f	.
8d	8d	8f	8r
8d	8d	8f	16dd
.	.	.	16b
=63	=63	=63	=63
8r	8r	8r	2f
8G	8B	8d	.
8G	8B	8d	.
8G	8B	8d	.
=64	=64	=64	=64
8r	8r	8r	4e-
8c	8c	8e-	.
8c	8c	8e-	8r
8c	8c	8e-	16ff#
.	.	.	16gg
=65	=65	=65	=65
8r	8r	8r	2b-
8E	8c	8g	.
8E	8c	8g	.
8E	8c	8g	.
=66	=66	=66	=66
8r	8r	8r	4a
8F	8c	8f	.
8F	8c	8f	8r
8F	8c	8f	16cc
.	.	.	16a
=67	=67	=67	=67
8r	8r	8r	2e-
8AA	8F	8c	.
8AA	8F	8c	.
8AA	8F	8c	.
=68	=68	=68	=68
2r	2r	2r	4.r
.	.	.	16d
.	.	.	16f
=69	=69	=69	=69
8r	8r	8r	8b-
8B-	8f	8d	8b-
8B-	8f	8d	8b-
8r	8r	8r	16ee-
.	.	.	16dd
=70	=70	=70	=70
8r	8r	8r	8cc
8F	8f	8a	8cc
8F	8f	8a	8cc
8r	8r	8r	16ff
.	.	.	16ee-
=71	=71	=71	=71
8r	8r	8r	8dd
8BB-	8f	8dd	8bb-
8E-	8g	8ee-	8gg
8E-	8g	8cc	8ee-
=72	=72	=72	=72
4F	4f	4b-	4dd
8FF	4r	8a	8cc
8r	.	8r	16ee-
.	.	.	16cc
=73	=73	=73	=73
8r	8r	8r	8a
8F	8A	8a	8ccc
8F	8A	8a	8ccc
8r	8r	8r	16a
.	.	.	16cc
=74	=74	=74	=74
8r	8r	8r	8ee-
8A	8A	8c	8e-
8A	8A	8c	8e-
8r	8r	8r	16d
.	.	.	16f
=75	=75	=75	=75
8r	8r	8r	8b-
8BB-	8d	8f	8dd
8E-	8e-	8g	8cc
8F	8c	8e-	16b-
.	.	.	16a
=76	=76	=76	=76
8BB-	4B-	4d	4b-
8FF	.	.	.
8BB-	4r	4r	8r
8r	.	.	16d
.	.	.	16f
=77	=77	=77	=77
8r	8r	8r	16b-
.	.	.	16a
8B-	8f	8d	16b-
.	.	.	16a
8B-	8f	8d	8b-
8r	8r	8r	16ee-
.	.	.	16dd
=78	=78	=78	=78
8r	8r	8r	16cc
.	.	.	16b
8F	8f	8a	16cc
.	.	.	16b
8F	8f	8a	8cc
8r	8r	8r	16ff
.	.	.	16ee-
=79	=79	=79	=79
8r	8r	8r	16dd
.	.	.	16ee-
8BB-	8f	8dd	16ff
.	.	.	16gg
8r	8r	8r	16aa
.	.	.	16bb-
8E-	8e-	8ee-	16gg
.	.	.	16ee-
=80	=80	=80	=80
8r	8r	8r	4dd
8F	8f	8b-	.
8F	8f	8a	8cc
8r	8r	8r	16ee-
.	.	.	16cc
=81	=81	=81	=81
8r	8r	8r	8a
8F	8A	8a	16bb
.	.	.	16ccc
8F	8A	8a	8ccc
8r	8r	8r	16a
.	.	.	16cc
=82	=82	=82	=82
8r	8r	8r	16ee-
.	.	.	16cc
8A	8A	8c	16a
.	.	.	16f
8A	8A	8c	8e-
8r	8r	8r	16d
.	.	.	16f
=83	=83	=83	=83
8r	8r	8r	8b-
8BB-	8d	8f	8dd
8E-	8e-	8g	8cc
8F	8c	8e-	16b-
.	.	.	16a
=84	=84	=84	=84
8BB-	4B-	4d	4b-
8FF	.	.	.
8BB-	4r	4r	8r
8r	.	.	16b-
.	.	.	16dd
=85	=85	=85	=85
8r	8r	8r	16gg
.	.	.	16ff#
8B-	8g	8d	16gg
.	.	.	16ff#
8B-	8g	8d	8gg
8r	8r	8r	16bb-
.	.	.	16gg
=86	=86	=86	=86
8r	8r	8r	8ff#
8c	8a	8f#	8dd
8c	8a	8f#	8dd
8r	8r	8r	16b-
.	.	.	16dd
=87	=87	=87	=87
8r	8r	8r	16gg
.	.	.	16ff#
8B-	8g	8d	16gg
.	.	.	16ff#
8B-	8g	8d	16gg
.	.	.	16aa
8r	8r	8r	16bb-
.	.	.	16gg
=88	=88	=88	=88
8r	8r	8r	16ff
.	.	.	16ee
8B-	8g	8e	16gg
.	.	.	16ee
8B-	8g	8e	8cc
8r	8r	8r	16a
.	.	.	16cc
=89	=89	=89	=89
8F	8f	8a	16ff
.	.	.	16gg
8C	8g	8b-	16ee
.	.	.	16gg
8F	8a	8a	8ff
8C	8e	8b-	16gg
.	.	.	16ee
=90	=90	=90	=90
4F	4f	8cc	8aa
.	.	8a	8ff
4r	4r	8a	8ff
.	.	8r	16a
.	.	.	16cc
=91	=91	=91	=91
8D	8d	8f	8ff
8D	8d	8f	8ff
8BB-	8d	8d	8gg
8BB-	8d	8d	8gg
=92	=92	=92	=92
4AA	4e	4c#	4.aa
4r	4r	4r	.
.	.	.	16a
.	.	.	16cc
=93	=93	=93	=93
8F	8f	8a	16ff
.	.	.	16gg
8C	8g	8b-	16ee
.	.	.	16gg
8F	8a	8a	16ff
.	.	.	16aa
8C	8e	8b-	16gg
.	.	.	16bb-
=94	=94	=94	=94
4F	4f	8cc	8aa
.	.	8a	8ff
4r	4r	8a	8ff
.	.	8r	16a
.	.	.	16cc
=95	=95	=95	=95
8D	8d	8f	8ff
8D	8d	8f	8ff
8BB-	8d	8d	8gg
8BB-	8d	8d	8gg
=96	=96	=96	=96
4.AA	4.e	4.c#	32aa
.	.	.	32gg#
.	.	.	32aa
.	.	.	32gg#
.	.	.	32aa
.	.	.	32gg#
.	.	.	32aa
.	.	.	32gg#
.	.	.	8aa
8r	8r	8r	16ff
.	.	.	16aa
=97	=97	=97	=97
8r	8r	8r	16ccc
.	.	.	16bb
8A	8f	8ff	16ccc
.	.	.	16bb
8A	8f	8ff	8ccc
8r	8r	8r	16ff
.	.	.	16bb-
=98	=98	=98	=98
8r	8r	8r	16ddd
.	.	.	16ccc#
8B-	8d	8ff	16ddd
.	.	.	16ccc#
8B-	8d	8ff	8ddd
8r	8r	8r	8bb-
=99	=99	=99	=99
8r	8r	8r	16aa
.	.	.	16ccc
8c	8c	8a	8ff
8r	8r	8r	16gg
.	.	.	16bb-
8C	8c	8b-	8ee
=100	=100	=100	=100
8r	8r	8r	4ff
8F	8c	8a	.
8F	8c	8a	8r
8r	8r	8r	16aa-
.	.	.	16gg
=101	=101	=101	=101
8r	8r	8r	16ff
.	.	.	16ee-
8G	8d	8f	16dd
.	.	.	16cc
8G	8d	8f	16b
.	.	.	16a-
8r	8r	8r	16g
.	.	.	16f
=102	=102	=102	=102
8r	8r	8r	8e-
8C	8g	8e-	8cc
8C	8g	8e-	8cc
8r	8r	8r	16c
.	.	.	16d
=103	=103	=103	=103
8r	8r	8r	16e-
.	.	.	16f
8E-	8e-	8g	16g
.	.	.	16a
8E-	8e-	8g	16b
.	.	.	16cc
8E-	8e-	8g	16dd
.	.	.	16ee-
=104	=104	=104	=104
4F	4f	4d	4b-
8FF	4r	8c	8a
8r	.	8r	16d
.	.	.	16f
=105	=105	=105	=105
8r	8r	8r	16b-
.	.	.	16a
8B-	8f	8d	16b-
.	.	.	16a
8B-	8f	8d	8b-
8r	8r	8r	16ee-
.	.	.	16dd
=106	=106	=106	=106
8r	8r	8r	16cc
.	.	.	16b
8F	8f	8a	16cc
.	.	.	16b
8F	8f	8a	8cc
8r	8r	8r	16ff
.	.	.	16ee-
=107	=107	=107	=107
8r	8r	8r	16dd
.	.	.	16ee-
8BB-	8f	8dd	16ff
.	.	.	16gg
8r	8r	8r	16aa
.	.	.	16bb-
8E-	8e-	8ee-	16gg
.	.	.	16ee-
=108	=108	=108	=108
8r	8r	8r	4dd
8F	8f	8b-	.
8F	8f	8a	8cc
8r	8r	8r	16ee-
.	.	.	16cc
=109	=109	=109	=109
8r	8r	8r	8a
8F	8A	8a	16bb
.	.	.	16ccc
8F	8A	8a	8ccc
8r	8r	8r	16a
.	.	.	16cc
=110	=110	=110	=110
8r	8r	8r	16ee-
.	.	.	16cc
8A	8A	8c	16a
.	.	.	16f
8A	8A	8c	8e-
8r	8r	8r	16d
.	.	.	16f
=111	=111	=111	=111
8r	8r	8r	8b-
8BB-	8d	8f	8dd
8E-	8e-	8g	8cc
8F	8c	8e-	16b-
.	.	.	16a
=112	=112	=112	=112
4BB-	4B-	4d	4b-
4r	8r	8r	8r
.	8g	8b-	8dd
=113	=113	=113	=113
4G	16g	16b-	4.dd
.	16f#	16a	.
.	16g	16b-	.
.	16a	16cc	.
8r	16b-	16dd	.
.	16cc	16ee-	.
8D	16b-	16dd	8ff#
.	16a	16cc	.
=114	=114	=114	=114
4GG	16g	16b-	8gg
.	16f#	16a	.
.	16g	16b-	8bb-
.	16f#	16a	.
4r	16g	16b-	8r
.	16f#	16a	.
.	16g	16b-	8dd
.	16f#	16a	.
=115	=115	=115	=115
4G	16g	16b-	4.dd
.	16f#	16a	.
.	16g	16b-	.
.	16a	16cc	.
8r	16b-	16dd	.
.	16cc	16ee-	.
8D	16b-	16dd	8ff#
.	16a	16cc	.
=116	=116	=116	=116
4GG	16g	16b-	8gg
.	16f#	16a	.
.	16g	16b-	8bb-
.	16f#	16a	.
4r	16g	16b-	8r
.	16f#	16a	.
.	16g	16b-	8gg
.	16f	16b	.
=117	=117	=117	=117
4C	16e-	16cc	4.gg
.	16d	16b	.
.	16e-	16cc	.
.	16f	16dd	.
8r	16g	16ee-	.
.	16a-	16ff	.
8G	16g	16ee-	8bb
.	16f	16dd	.
=118	=118	=118	=118
4C	16e-	16cc	8ccc
.	16d	16b	.
.	16e-	16cc	8eee-
.	16d	16b	.
4r	16e-	16cc	8r
.	16d	16b	.
.	16e-	16cc	8gg
.	16d	16b	.
=119	=119	=119	=119
4C	16e-	16cc	4.gg
.	16d	16b	.
.	16e-	16cc	.
.	16f	16dd	.
8r	16g	16ee-	.
.	16a-	16ff	.
8G	16g	16ee-	8bb
.	16f	16dd	.
=120	=120	=120	=120
4C	16e-	16cc	8ccc
.	16f	16dd	.
.	16e-	16cc	8eee-
.	16d	16b-	.
4r	16c	16a	8r
.	16d	16b-	.
.	16c	16a	8ccc
.	16B-	16g	.
=121	=121	=121	=121
2F	16A	16f	8ccc
.	16c	16e-	.
.	16A	16f	8fff
.	16c	16e-	.
.	16A	16f	8r
.	16c	16e-	.
.	16A	16f	8eee-
.	16c	16e-	.
=122	=122	=122	=122
4B-	16B-	16f	8ddd
.	16d	16d	.
.	16B-	16f	8bbb-
.	16d	16d	.
8r	16B-	16f	8r
.	16d	16d	.
8BB-	16B-	16f	8b-
.	16d	16d	.
=123	=123	=123	=123
8E-	8e-	8g	8cc
8E-	8e-	8e-	8gg
8F	8f	8c	8a
8F	8A	8e-	8cc
=124	=124	=124	=124
4BB-	4B-	4d	4b-
4r	8r	8r	8r
.	8g	8b-	8dd
=125	=125	=125	=125
4BB-	4B-	4d	4b-
4r	8r	8r	8r
.	8b-	8dd	8ff
=126	=126	=126	=126
4B-	16b-	16dd	4.ff
.	16a	16cc	.
.	16b-	16dd	.
.	16cc	16ee-	.
8r	16dd	16ff	.
.	16ee-	16gg	.
8F	16dd	16ff	8aa
.	16cc	16ee-	.
=127	=127	=127	=127
4B-	16b-	16dd	8bb-
.	16a	16cc	.
.	16b-	16dd	8ddd
.	16a	16cc	.
4r	16b-	16dd	8r
.	16a	16cc	.
.	16b-	16dd	8ff
.	16a	16cc	.
=128	=128	=128	=128
4BB-	16b-	16dd	4.ff
.	16a	16cc	.
.	16b-	16dd	.
.	16cc	16ee-	.
8r	16dd	16ff	.
.	16ee-	16gg	.
8F	16dd	16ff	8aa
.	16cc	16ee-	.
=129	=129	=129	=129
4B-	16b-	16dd	8bb-
.	16a	16cc	.
.	16b-	16dd	8ddd
.	16a	16cc	.
8r	16b-	16dd	8r
.	16cc	16ee-	.
8D	16b-	16dd	8ff#
.	16a	16cc	.
=130	=130	=130	=130
4G	16g	16b-	8gg
.	16f#	16a	.
.	16g	16b-	8bb-
.	16f#	16a	.
8r	16g	16b-	8r
.	16a-	16cc	.
8BB-	16g	16b-	8dd
.	16f	16a-	.
=131	=131	=131	=131
4E-	16e-	16g	8ee-
.	16d	16f#	.
.	16e-	16g	8gg
.	16d	16f#	.
8r	16e-	16g	8r
.	16f	16a-	.
8GG	16e-	16g	8b
.	16d	16f	.
=132	=132	=132	=132
4C	16c	16e-	8cc
.	16B	16d	.
.	16c	16e-	8ee-
.	16B	16d	.
8r	16c	16e-	8r
.	16d	16f	.
8C	16c	16e-	8ee-
.	16B-	16d	.
=133	=133	=133	=133
4FF#	16A	16c	4ee-
.	16c	16e-	.
.	16A	16c	.
.	16c	16e-	.
4GG	16G	16B-	8dd
.	16B-	16d	.
.	16G	16B-	8dd
.	16B-	16d	.
=134	=134	=134	=134
4DD	16A	16f#	8cc
.	16c	16d	.
.	16A	16f#	8a
.	16c	16d	.
8r	16G	16g	8b-
.	16B-	16d	.
8DD	16G	16g	8g
.	16B-	16d	.
=135	=135	=135	=135
4DD	16d	16f#	4dd
.	16e	16g	.
.	16f#	16a	.
.	16g	16b-	.
4r	16a	16cc	8r
.	16g	16b-	.
.	16a	16cc	8dd
.	16f#	16a	.
=136	=136	=136	=136
4G	16g	16b-	4dd
.	16f#	16a	.
.	16g	16b-	.
.	16a	16cc	.
8r	16b-	16dd	8r
.	16cc	16ee-	.
8D	16b-	16dd	8ff#
.	16a	16cc	.
=137	=137	=137	=137
4G	16g	16b-	8gg
.	16f#	16a	.
.	16g	16b-	8bb-
.	16f#	16a	.
4r	16g	16b-	8r
.	16f#	16a	.
.	16g	16b-	8dd
.	16f#	16a	.
=138	=138	=138	=138
4G	16g	16b-	4.dd
.	16f#	16a	.
.	16g	16b-	.
.	16a	16cc	.
8r	16b-	16dd	.
.	16cc	16ee-	.
8D	16b-	16dd	8ff#
.	16a	16cc	.
=139	=139	=139	=139
4G	16g	16b-	8gg
.	16f#	16a	.
.	16g	16b-	8bb-
.	16f#	16a	.
4r	16g	16b-	8r
.	16f#	16a	.
.	16g	16b-	8gg
.	16f	16b	.
=140	=140	=140	=140
4C	16e-	16cc	4.gg
.	16d	16b	.
.	16e-	16cc	.
.	16f	16dd	.
8r	16g	16ee-	.
.	16a-	16ff	.
8G	16g	16ee-	8bb
.	16f	16dd	.
=141	=141	=141	=141
4C	16e-	16cc	8ccc
.	16d	16b	.
.	16e-	16cc	8eee-
.	16d	16b	.
4r	16e-	16cc	8r
.	16d	16b	.
.	16e-	16cc	8gg
.	16d	16b	.
=142	=142	=142	=142
4C	16e-	16cc	4.gg
.	16d	16b	.
.	16e-	16cc	.
.	16f	16dd	.
8r	16g	16ee-	.
.	16a-	16ff	.
8G	16g	16ee-	8b
.	16f	16dd	.
=143	=143	=143	=143
4C	16e-	16cc	8cc
.	16f	16dd	.
.	16e-	16cc	8ee-
.	16d	16b-	.
8r	16c	16a	8r
.	16d	16b-	.
8CC	16c	16a	8ee-
.	16B-	16g	.
=144	=144	=144	=144
[2DD	16A	16f#	4ee-
.	16B-	16g	.
.	16c	16a	.
.	16A	16f#	.
.	16B-	16g	4dd
.	16c	16a	.
.	16d	16b-	.
.	16B-	16g	.
=145	=145	=145	=145
2DD]	16A	16f#	4cc
.	16B-	16g	.
.	16c	16a	.
.	16A	16f#	.
.	16B-	16g	4b-
.	16c	16a	.
.	16d	16b-	.
.	16B-	16g	.
=146	=146	=146	=146
8DD	16c	16a	8a
.	16d	16b-	.
8DD	16e-	16cc	8a
.	16c	16a	.
8DD	16A	16f#	8d
.	16B-	16g	.
8DD	16c	16a	8d
.	16A	16f#	.
=147	=147	=147	=147
4GG	4G	4g	4g
4r	8r	8r	8r
.	8b-	8dd	8ff
=148	=148	=148	=148
4GG	4G	4g	4g
4r	4r	4r	8r
.	.	.	16d
.	.	.	16f
=149	=149	=149	=149
8r	8r	8r	8b-
8B-	8f	8d	8b-
8B-	8f	8d	8b-
8r	8r	8r	16ee-
.	.	.	16dd
=150	=150	=150	=150
8r	8r	8r	8cc
8F	8f	8a	8cc
8F	8f	8a	8cc
8r	8r	8r	16ff
.	.	.	16ee-
=151	=151	=151	=151
8r	8r	8r	8dd
8BB-	8f	8dd	8bb-
8E-	8g	8ee-	8gg
8E-	8g	8cc	8ee-
=152	=152	=152	=152
4F	4f	4b-	4dd
8FF	4r	8a	8cc
8r	.	8r	16ee-
.	.	.	16cc
=153	=153	=153	=153
8r	8r	8r	8a
8F	8A	8a	8ccc
8F	8A	8a	8ccc
8r	8r	8r	16a
.	.	.	16cc
=154	=154	=154	=154
8r	8r	8r	8ee-
8A	8A	8c	8e-
8A	8A	8c	8e-
8r	8r	8r	16d
.	.	.	16f
=155	=155	=155	=155
8r	8r	8r	8b-
8BB-	8d	8f	8dd
8E-	8e-	8g	8cc
8F	8c	8e-	16b-
.	.	.	16a
=156	=156	=156	=156
8BB-	4B-	4d	4b-
8FF	.	.	.
8BB-	4r	4r	8r
8r	.	.	16d
.	.	.	16f
=157	=157	=157	=157
4r	4r	4r	8b-
.	.	.	8bb-
4B-	4f	4dd	8B-
.	.	.	16ee-
.	.	.	16dd
=158	=158	=158	=158
4r	4r	4r	8cc
.	.	.	8ccc
4F	4A	4ee-	8f
.	.	.	8ee-
=159	=159	=159	=159
4B-	8B-	8dd	8dd
.	8r	8r	8bb-
4E-	8g	8cc	8e-
.	8r	8r	8gg
=160	=160	=160	=160
4F	4f	4b-	4dd
4r	4r	8a	8cc
.	.	8r	16ee-
.	.	.	16cc
=161	=161	=161	=161
4r	4r	4r	8a
.	.	.	8ccc
4F	4cc	4ee-	8aa
.	.	.	8eee-
=162	=162	=162	=162
4r	4r	4r	8e-
.	.	.	8cc
4B-	4f	4dd	8d
.	.	.	8bb-
=163	=163	=163	=163
8E-	8g	8cc	8e-
8E-	8g	8cc	8gg
8F	8e-	8a	8f
8F	8e-	8a	8a
=164	=164	=164	=164
8BB-	4d	4b-	4B-
8FF	.	.	.
8BB-	4r	4r	8r
8r	.	.	16b-
.	.	.	16dd
=165	=165	=165	=165
8r	8r	8r	8gg
8B-	8g	8d	8gg
8B-	8g	8d	8gg
8r	8r	8r	16bb-
.	.	.	16gg
=166	=166	=166	=166
8r	8r	8r	8ff#
8c	8a	8f#	8dd
8c	8a	8f#	8dd
8r	8r	8r	16b-
.	.	.	16dd
=167	=167	=167	=167
8r	8r	8r	8gg
8B-	8g	8d	8g
8B-	8g	8d	8bb-
8r	8r	8r	8gg
=168	=168	=168	=168
8r	8r	8r	8ee
8B-	8g	8e	8ccc
8B-	8g	8e	8cc
8r	8r	8r	16a
.	.	.	16cc
=169	=169	=169	=169
8r	8r	8r	8ff
8A	8f	8cc	8f
8r	8r	8r	8e
8E	8c	8cc	8gg
=170	=170	=170	=170
8r	8r	8r	8f
8F	8f	8cc	8aa
8F	8f	8a	8ff
8r	8r	8r	16a
.	.	.	16cc
=171	=171	=171	=171
8D	8d	8f	8ff
8D	8d	8f	8ff
8BB-	8d	8d	8gg
8BB-	8d	8d	8gg
=172	=172	=172	=172
4AA	4e	4c#	8gg#
.	.	.	8aa
4r	4r	4r	8aa
.	.	.	16a
.	.	.	16cc
=173	=173	=173	=173
8r	8r	8r	8ff
8A	8cc	8ff	8f
8r	8r	8r	8gg
8E	8cc	8gg	8e
=174	=174	=174	=174
8r	8r	8r	8aa
8F	8cc	8aa	8f
8F	8cc	8aa	8f
8r	8r	8r	16a
.	.	.	16cc
=175	=175	=175	=175
8D	8d	8f	8ff
8D	8d	8f	8ff
8BB-	8d	8d	8gg
8BB-	8d	8d	8gg
=176	=176	=176	=176
4.AA	4.e	4.c#	32aa
.	.	.	32gg#
.	.	.	32aa
.	.	.	32gg#
.	.	.	32aa
.	.	.	32gg#
.	.	.	32aa
.	.	.	32gg#
.	.	.	8aa
8r	8r	8r	16ff
.	.	.	16aa
=177	=177	=177	=177
8r	8r	8r	8ccc
8A	8f	8ff	8ccc
8A	8f	8ff	8ccc
8r	8r	8r	16ff
.	.	.	16bb-
=178	=178	=178	=178
8r	8r	8r	8ddd
8B-	8f	8dd	8b-
8r	8r	8r	8g
8E	8g	8dd	8bb-
=179	=179	=179	=179
8r	8r	8r	16aa
.	.	.	16ccc
8F	8a	8cc	8ff
8r	8r	8r	16gg
.	.	.	16bb-
8C	8g	8b-	8ee
=180	=180	=180	=180
8r	8r	8r	4.ff
8F	8f	8a	.
8F	8f	8a	.
8r	8r	8r	8aa-
=181	=181	=181	=181
8r	8r	8r	8b
8G	8d	8f	8dd
8G	8d	8f	8G
8r	8r	8r	8f
=182	=182	=182	=182
8r	8r	8r	8e-
8C	8g	8e-	8bb
8C	8g	8e-	8ccc
8r	8r	8r	8b
=183	=183	=183	=183
8r	8r	8r	8cc
8E-	8e-	8g	8dd
8E-	8e-	8g	8ee-
8E-	8e-	16g	8gg
.	.	16e-	.
=184	=184	=184	=184
4F	4f	4d	4b-
8FF	4r	8c	8a
8r	.	8r	16d
.	.	.	16f
=185	=185	=185	=185
4r	4r	4r	8b-
.	.	.	8bb-
4B-	4f	4dd	8B-
.	.	.	16ee-
.	.	.	16dd
=186	=186	=186	=186
4r	4r	4r	8cc
.	.	.	8ccc
4F	4A	4ee-	8f
.	.	.	8ee-
=187	=187	=187	=187
4B-	8B-	8dd	8dd
.	8r	8r	8bb-
4E-	8g	8cc	8e-
.	8r	8r	8gg
=188	=188	=188	=188
4F	4f	4b-	4dd
4r	4r	8a	8cc
.	.	8r	16ee-
.	.	.	16cc
=189	=189	=189	=189
4r	4r	4r	8a
.	.	.	8ccc
4F	4cc	4ee-	8aa
.	.	.	8eee-
=190	=190	=190	=190
4r	4r	4r	8e-
.	.	.	8cc
4B-	4f	4dd	8d
.	.	.	8bb-
=191	=191	=191	=191
8E-	8g	8cc	8e-
8E-	8g	8cc	8gg
8F	8e-	8a	8f
8F	8e-	8a	8a
=192	=192	=192	=192
4BB-	4d	4b-	4B-
4r	4r	4r	8r
.	.	.	16d
.	.	.	16f
=193	=193	=193	=193
8r	8r	8r	8b-
8B-	8f	8d	8b-
8B-	8f	8d	8b-
8r	8r	8r	16ee-
.	.	.	16dd
=194	=194	=194	=194
8r	8r	8r	8cc
8F	8f	8a	8cc
8F	8f	8a	8cc
8r	8r	8r	16ff
.	.	.	16ee-
=195	=195	=195	=195
8r	8r	8r	8dd
8BB-	8f	8dd	8bb-
8E-	8g	8ee-	8gg
8E-	8g	8cc	8ee-
=196	=196	=196	=196
4F	4f	4b-	4dd
8FF	4r	8a	8cc
8r	.	8r	16ee-
.	.	.	16cc
=197	=197	=197	=197
8r	8r	8r	8a
8F	8A	8a	8ccc
8F	8A	8a	8ccc
8r	8r	8r	16a
.	.	.	16cc
=198	=198	=198	=198
8r	8r	8r	8ee-
8A	8A	8c	8e-
8A	8A	8c	8e-
8r	8r	8r	8r
=199	=199	=199	=199
2r	2r	2r	4.r
.	.	.	16a
.	.	.	16cc
=200	=200	=200	=200
8r	8r	8r	8ee-
8AA	8A	8c	8e-
8AA	8A	8c	8e-
8r	8r	8r	8r
=201	=201	=201	=201
2r	2r	2r	4.r
.	.	.	16dd
.	.	.	16ee-
=202	=202	=202	=202
[2AA	[2c	[2e-	[2gg
=203	=203	=203	=203
4AA]	4c]	4e-]	4gg]
4AA	4F	4c	4e-
=204	=204	=204	=204
4AA	4F	4c	4e-
4r	4r	4r	4r
=205	=205	=205	=205
4r	4r	4r	4r
4AA	4F	4c	4e-
=206	=206	=206	=206
4AA	4F	4c	4e-
4r	4r	4r	4r
=207	=207	=207	=207
2r	2r	4.r	4.r
.	.	8f	8f
=208	=208	=208	=208
4BB-	4d 4B-	8b- 8d	8b- 8d
.	.	8b- 8d	8b- 8d
4r	4B- 4d	8b- 8d	8b- 8d
.	.	8dd	8dd
=209	=209	=209	=209
4F	4A 4f	8f 8cc	8f 8cc
.	.	8cc 8f	8f 8cc
4r	4f 4A	8f 8cc	8f 8cc
.	.	8ff	8ff
=210	=210	=210	=210
4BB-	4B- 4f	8dd	8dd
.	.	8bb-	8bb-
4E-	4e- 4cc	8gg	8gg
.	.	8ee-	8ee-
=211	=211	=211	=211
4F	4b- 4f	4dd 4f	4dd 4f
4r	4a 4f	8cc 8f	8cc 8f
.	.	8cc 8f	8f 8cc
=212	=212	=212	=212
4c 4F 4AA	4f 4cc	8ee- 8f	8ee- 8f
.	.	8f 8ee-	8f 8ee-
4r	4cc 4f	8f 8ee-	8ee- 8f
.	.	8cc	8cc
=213	=213	=213	=213
4B- 4BB- 4D	4b- 4f	8dd 8f	8dd 8f
.	.	8f 8dd	8f 8dd
4r	4f 4b-	8f 8dd	8f 8dd
.	.	8b- 8d	8d 8b-
=214	=214	=214	=214
4c 4E-	4e- 4cc	8e- 8cc	8e- 8cc
.	.	8cc 8e-	8cc 8e-
4A 4F	4f 4a	8a 8e-	8e- 8a
.	.	8a 8e-	8a 8e-
=215	=215	=215	=215
4B- 4D	4d 4b-	4b- 4d	4b- 4d
4F	4cc 4f	4f 4cc 4aa	4aa 4cc 4f
=216	=216	=216	=216
4BB-	4b- 4d	4bb- 4b- 4d	4bb- 4b- 4d
4r	4r	4r	4r
==	==	==	==
*-	*-	*-	*-
!!!RWG1: This file contains only pitch and duration data.
!!!RWG2: Transposing instruments are not transposed.
!!!RWG3: Spines may have incompatible meters.
!!!RWG4: Durations of rests and tied notes may be interpreted.
!!!RWG: Key is interpreted using the Humdrum key tool.
!!!GTL: 6 Quators ("Jungfernquartette")
!!!AFT: stage1
!!!END: 1997/04/15
!!!KEY: 669923201
!!!EMD: Converted from MuseData to Humdrum Dec 16, 2000, by Andreas Kornstaedt using muse2kern.
!!!EMD: Manual editing by Craig Sapp, Nov 2001
